X:1
T:The Day You Gave Us, Lord, Is Ended
T:Text: John Ellerton, 1870, alt. Tune: Clement C. Scholefield, 1874
T:98 98 ST. CLEMENT www.hymnary.org/text/the_day_thou_gavest_lord_is_ended
T:The Day You Gave Us, Lord, Is Ended
T:This hymn is in the public domain. You may freely use this score for personal and congregational worship. If you reproduce the score, please credit Hymnary.org as the source. 
T:This hymn is in the public domain. You may freely use this score for personal and congregational worship. If you reproduce the score, please credit Hymnary.org as the source. 
Z:This hymn is in the public domain. You may freely use this score for personal and congregational worship. If you reproduce the score, please credit Hymnary.org as the source.
%%score ( 1 2 ) ( 3 4 )
L:1/8
M:3/4
K:G
V:1 treble nm="SOPRANO ALTO" snm="S. A."
V:2 treble 
V:3 bass nm="TENOR BASS" snm="T. B."
V:4 bass 
V:1
"^1""^2""^3""^4" D2 | (B2 c2) B2 | (d2 B2) A2 | (G2 A2) E2 | G2 F2 | E2 | D4 D2 | (G2 A2) B2 | %8
w: The|day * you|gave * us,|Lord, * is|end- ed,|the|dark- ness|falls * at|
w: We|thank * you|that * your|church, * un-|sleep- ing|while|earth rolls|on- * ward|
w: As|o- * ver|con- * ti-|nent * and|is- land|each|dawn leads|to * an-|
w: So|be * it,|Lord: * your|throne * shall|nev- er,|like|earth's proud|king- * doms,|
 A4 G2 | F4 | D2 | (B2 c2) B2 | (d2 B2) A2 | (G2 A2) E2 | G2 F2 |1 E2 | (D2 E2) F2 | (G2 B2) A2 | %18
w: your re-|quest.|To|you * our|morn- * ing|hymns * as-|cend- ed;|your|praise * shall|sanc- * ti-|
w: in- to|light,|through|all * the|world * her|watch * is|keep- ing,|and|nev- * er|rests * by|
w: oth- er|day,|the|voice * of|prayer * is|nev- * er|si- lent,|nor|do * the|prais- * es|
w: pass a-|way.|Your|king- * dom|stands * and|grows * for-|ev- er,|un-|til * there|dawns * your|
 (E2 G2) F2 | G4 x2 |] %20
w: fy * our|rest.|
w: day * or|night.|
w: die * a-|way.|
w: glo- * rious|day.|
V:2
 D2 | (D2 E2) D2 | F4 F2 | E4 E2 | C2 C2 | C2 | (C2 B,2) D2 | E4 D2 | (D2 ^C2) C2 | D4 | D2 | %11
 (D2 E2) D2 | F4 F2 | E4 E2 | C2 C2 |1 A,2 | D4 C2 | (B,2 D2) E2 | E4 D2 | D4 x2 |] %20
V:3
 D,2 | G,4 G,2 | (A,2 D2) C2 | (B,2 C2) A,2 | A,2 A,2 | G,2 | (A,2 B,2) A,2 | B,4 G,2 | E,4 A,2 | %9
 A,4 | A,2 | G,4 G,2 | (A,2 D2) C2 | (B,2 C2) A,2 | A,2 A,2 |1 F,2 | G,4 A,2 | G,4 C2 | %18
 (C2 B,2) A,2 | B,4 x2 |] %20
V:4
 D,2 | G,,4 G,2 | D,4 D,2 | (E,2 A,,2) C,2 | D,2 D,2 | E,2 | (F,2 G,2) F,2 | E,4 E,2 | A,,4 A,,2 | %9
 D,4 | F,2 | G,4 G,2 | D,4 D,2 | (E,2 A,,2) C,2 | D,2 D,2 |1 C,2 | B,,4 D,2 | (E,2 B,,2) C,2 | %18
 A,,4 D,2 | G,,4 x2 |] %20

